!!!OTL: "Der Tanz" FIDLGUNGAS GAI GAI
!!!ARE: Europa, Mitteleuropa, Oesterreich
!!!SCT: Z1369
!!!YEM: Copyright 1995, estate of Helmut Schaffrath.
**kern
*ICvox
*Ivox
*M3/8
*k[f#]
*G:
{16dd
16b
=1
8g
8g
8g
=2
8a
8cc}
{16cc
16a
=3
8f#
8f#
8f#
=4
8g
8dd}
{16dd
16b
=5
8g
8g
8g
=6
8a
8cc}
{16cc
16a
=7
8f#
8f#
8f#
=8
4g}
==
!!!AGN: Kinder - Lied
!!!ONB: ESAC (Essen Associative Code) Database: ZUCCAL
!!!AMT: simple triple
!!!AIN: vox
!!!EED: Helmut Schaffrath
!!!EEV: 1.0
*-
